X:48
T:Kemp's Jig
C:John Playford, The English Dancing Master, 1651
N:arr. Emma Badowski
M:6/4
L:1/8
K:F major
|: "Dm"d3ed2 d3ed2 | "C"c3de2 e3dc2 | "Dm"d3ef2 e4d2 | "Am"c6 A6 :|\
"Dm"F6 "C"G6 | "F"A12 | 
"Dm"F6 "C"G6 | "D"A12 | \
"Dm"F4E2 F4G2 | A4A2 A3GF2 | "Am"E4D2 E3FE2 | "Dm"D12 :| 

